src/assets/images/menu-icon-4.svg

<svg width="17" height="16" viewBox="0 0 17 16" fill="none" xmlns="http://www.w3.org/2000/svg">
<path d="M6.39474 4.21053C5.85495 4.21053 2.72232 4.21053 2.18421 4.21053C1.25368 4.21053 0.5 4.96421 0.5 5.89474C0.5 6.82526 1.25368 7.57895 2.18421 7.57895C2.72232 7.57895 5.85495 7.57895 6.39474 7.57895C7.32526 7.57895 8.07895 6.82526 8.07895 5.89474C8.07895 4.96421 7.32526 4.21053 6.39474 4.21053ZM8.07895 1.68421C8.07895 2.18779 8.07895 3.36842 8.07895 3.36842C8.07895 3.36842 6.82168 3.36842 6.39474 3.36842C5.46421 3.36842 4.71053 2.61474 4.71053 1.68421C4.71053 0.753684 5.46421 0 6.39474 0C7.32526 0 8.07895 0.753684 8.07895 1.68421ZM4.71053 10.1053C4.71053 10.6451 4.71053 13.7777 4.71053 14.3158C4.71053 15.2463 5.46421 16 6.39474 16C7.32526 16 8.07895 15.2463 8.07895 14.3158C8.07895 13.7777 8.07895 10.6451 8.07895 10.1053C8.07895 9.17474 7.32526 8.42105 6.39474 8.42105C5.46421 8.42105 4.71053 9.17474 4.71053 10.1053ZM2.18421 8.42105C2.68779 8.42105 3.86842 8.42105 3.86842 8.42105C3.86842 8.42105 3.86842 9.67832 3.86842 10.1053C3.86842 11.0358 3.11474 11.7895 2.18421 11.7895C1.25368 11.7895 0.5 11.0358 0.5 10.1053C0.5 9.17474 1.25368 8.42105 2.18421 8.42105ZM10.6053 11.7895C11.1451 11.7895 14.2777 11.7895 14.8158 11.7895C15.7463 11.7895 16.5 11.0358 16.5 10.1053C16.5 9.17474 15.7463 8.42105 14.8158 8.42105C14.2777 8.42105 11.1451 8.42105 10.6053 8.42105C9.67474 8.42105 8.92105 9.17474 8.92105 10.1053C8.92105 11.0349 9.67474 11.7895 10.6053 11.7895ZM8.92105 14.3158C8.92105 13.8122 8.92105 12.6316 8.92105 12.6316C8.92105 12.6316 10.1783 12.6316 10.6053 12.6316C11.5358 12.6316 12.2895 13.3853 12.2895 14.3158C12.2895 15.2463 11.5358 16 10.6053 16C9.67474 16 8.92105 15.2455 8.92105 14.3158ZM12.2895 5.89474C12.2895 5.35495 12.2895 2.22232 12.2895 1.68421C12.2895 0.753684 11.5358 0 10.6053 0C9.67474 0 8.92105 0.753684 8.92105 1.68421C8.92105 2.22232 8.92105 5.35495 8.92105 5.89474C8.92105 6.82526 9.67474 7.57895 10.6053 7.57895C11.5349 7.57895 12.2895 6.82442 12.2895 5.89474ZM14.8158 7.57895C14.3122 7.57895 13.1316 7.57895 13.1316 7.57895C13.1316 7.57895 13.1316 6.32168 13.1316 5.89474C13.1316 4.96421 13.8853 4.21053 14.8158 4.21053C15.7463 4.21053 16.5 4.96421 16.5 5.89474C16.5 6.82526 15.7455 7.57895 14.8158 7.57895Z" fill="white"/>
</svg>

<svg xmlns="http://www.w3.org/2000/svg" width="17" height="16" fill="none"><path fill="#fff" d="M6.395 4.21h-4.21a1.684 1.684 0 1 0 0 3.369h4.21a1.684 1.684 0 1 0 0-3.368Zm1.684-2.526v1.684H6.395a1.684 1.684 0 1 1 1.684-1.684Zm-3.368 8.421v4.21a1.684 1.684 0 1 0 3.368 0v-4.21a1.684 1.684 0 1 0-3.368 0ZM2.184 8.421h1.684v1.684a1.684 1.684 0 1 1-1.684-1.684Zm8.421 3.369h4.21a1.684 1.684 0 1 0 0-3.369h-4.21a1.684 1.684 0 1 0 0 3.369Zm-1.684 2.526v-1.684h1.684a1.684 1.684 0 1 1-1.684 1.684Zm3.369-8.421v-4.21a1.684 1.684 0 1 0-3.369 0v4.21a1.684 1.684 0 1 0 3.369 0Zm2.526 1.684h-1.684V5.895a1.684 1.684 0 1 1 1.684 1.684Z"/></svg>
